icons/flag.svg

<svg xmlns="http://www.w3.org/2000/svg" viewBox="0 0 24 24" fill="currentColor">
  <path d="M7 4.75c-.68579 0-1.25.56421-1.25 1.25v7.25H17c.6858 0 1.25-.5642 1.25-1.25V6c0-.68579-.5642-1.25-1.25-1.25H7Zm-1.25 10H17c1.5142 0 2.75-1.2358 2.75-2.75V6c0-1.51421-1.2358-2.75-2.75-2.75H7C5.48579 3.25 4.25 4.48579 4.25 6v14c0 .4142.33579.75.75.75s.75-.3358.75-.75v-5.25Z"/>
</svg>

<svg width="24" height="24" viewBox="0 0 24 24" fill="none" xmlns="http://www.w3.org/2000/svg">
<path fill-rule="evenodd" clip-rule="evenodd" d="M7 4.75C6.31421 4.75 5.75 5.31421 5.75 6V13.25H17C17.6858 13.25 18.25 12.6858 18.25 12V6C18.25 5.31421 17.6858 4.75 17 4.75H7ZM5.75 14.75H17C18.5142 14.75 19.75 13.5142 19.75 12V6C19.75 4.48579 18.5142 3.25 17 3.25H7C5.48579 3.25 4.25 4.48579 4.25 6V20C4.25 20.4142 4.58579 20.75 5 20.75C5.41421 20.75 5.75 20.4142 5.75 20V14.75Z" fill="black"/>
</svg>
